public/images/landing/discord.svg

<svg width="57" height="57" viewBox="0 0 57 57" fill="none" xmlns="http://www.w3.org/2000/svg">
<path d="M45.7658 13.2371C42.607 11.7905 39.187 10.7405 35.6245 10.1338C35.5619 10.1347 35.5021 10.1598 35.4583 10.2038C35.0308 10.9738 34.532 11.9771 34.1995 12.7471C30.4209 12.1875 26.5782 12.1875 22.7995 12.7471C22.467 11.9538 21.9683 10.9738 21.517 10.2038C21.4933 10.1571 21.422 10.1338 21.3508 10.1338C17.7883 10.7405 14.392 11.7905 11.2095 13.2371C11.1858 13.2371 11.162 13.2605 11.1383 13.2838C4.6783 22.7805 2.89705 32.0205 3.7758 41.1671C3.7758 41.2138 3.79955 41.2605 3.84705 41.2838C8.12205 44.3638 12.2308 46.2305 16.292 47.4671C16.3633 47.4905 16.4345 47.4671 16.4583 47.4205C17.4083 46.1371 18.2633 44.7838 18.9995 43.3605C19.047 43.2671 18.9995 43.1738 18.9045 43.1505C17.5508 42.6371 16.2683 42.0305 15.0095 41.3305C14.9145 41.2838 14.9145 41.1438 14.9858 41.0738C15.247 40.8871 15.5083 40.6771 15.7695 40.4905C15.817 40.4438 15.8883 40.4438 15.9358 40.4671C24.1058 44.1305 32.917 44.1305 40.992 40.4671C41.0395 40.4438 41.1108 40.4438 41.1583 40.4905C41.4195 40.7005 41.6808 40.8871 41.942 41.0971C42.037 41.1671 42.037 41.3071 41.9183 41.3538C40.6833 42.0771 39.377 42.6605 38.0233 43.1738C37.9283 43.1971 37.9045 43.3138 37.9283 43.3838C38.6883 44.8071 39.5433 46.1605 40.4695 47.4438C40.5408 47.4671 40.612 47.4905 40.6833 47.4671C44.7683 46.2305 48.877 44.3638 53.152 41.2838C53.1995 41.2605 53.2233 41.2138 53.2233 41.1671C54.2683 30.5971 51.4895 21.4271 45.8608 13.2838C45.837 13.2605 45.8133 13.2371 45.7658 13.2371ZM20.2345 35.5905C17.7883 35.5905 15.7458 33.3738 15.7458 30.6438C15.7458 27.9138 17.7408 25.6971 20.2345 25.6971C22.752 25.6971 24.747 27.9371 24.7233 30.6438C24.7233 33.3738 22.7283 35.5905 20.2345 35.5905ZM36.7883 35.5905C34.342 35.5905 32.2995 33.3738 32.2995 30.6438C32.2995 27.9138 34.2945 25.6971 36.7883 25.6971C39.3058 25.6971 41.3008 27.9371 41.277 30.6438C41.277 33.3738 39.3058 35.5905 36.7883 35.5905Z" fill="white"/>
</svg>

<svg xmlns="http://www.w3.org/2000/svg" width="57" height="57" fill="currentcolor">
	<path fill="currentcolor" d="M45.766 13.237a40.9 40.9 0 0 0-10.141-3.103.24.24 0 0 0-.167.07 32 32 0 0 0-1.258 2.543 39 39 0 0 0-11.4 0 23 23 0 0 0-1.283-2.543c-.024-.047-.095-.07-.166-.07a41.2 41.2 0 0 0-10.141 3.103c-.024 0-.048.024-.072.047-6.46 9.497-8.24 18.737-7.362 27.883 0 .047.024.093.071.117 4.275 3.08 8.384 4.947 12.445 6.183.071.023.142 0 .166-.047A30 30 0 0 0 19 43.36c.047-.093 0-.186-.096-.21a29.5 29.5 0 0 1-3.895-1.82c-.095-.046-.095-.186-.023-.256.261-.187.522-.397.784-.584a.15.15 0 0 1 .166-.023c8.17 3.663 16.981 3.663 25.056 0a.15.15 0 0 1 .166.023c.261.21.523.397.784.607.095.07.095.21-.024.257-1.235.723-2.541 1.306-3.895 1.82-.095.023-.119.14-.095.21a36 36 0 0 0 2.541 4.06c.072.023.143.046.214.023 4.085-1.236 8.194-3.103 12.469-6.183a.13.13 0 0 0 .071-.117c1.045-10.57-1.733-19.74-7.362-27.883-.024-.024-.048-.047-.095-.047M20.235 35.591c-2.447 0-4.49-2.217-4.49-4.947s1.996-4.947 4.49-4.947c2.517 0 4.512 2.24 4.488 4.947 0 2.73-1.995 4.947-4.488 4.947m16.553 0c-2.446 0-4.488-2.217-4.488-4.947s1.995-4.947 4.488-4.947c2.518 0 4.513 2.24 4.489 4.947 0 2.73-1.971 4.947-4.489 4.947" />
</svg>
